X:7535
T:Three jolly sheepskins
O:england
R:Polka
M:4/4
B:Free Reed Book
K:A
B2E2B2E2 | d2d2cdec | B2E2B2E2 \
|1 EdcB A2 c/B/A :|2 EdcB A2cB ||
ABcd efec | dedB cdcB | ABcd edea \
|1 fdBG A2 cB :|2 fdBG A4 |]


